X:28
T:Polska efter Lorens Brolin
R:sl\"angpolska
H:efter Lorens Brolin, Abbek{\aa}s, Sk{\aa}ne
A:Sk{\aa}ne
B:SvL Sk{\aa}ne 1001
Z:id:hn-sp-28
M:3/4
L:1/16
K:Am
ea^ga edcB A^GAB | cBce B/c/BA^G A2E2 | E2cB A^GAB c2c2 |
cde^f gfag edcB | Aa^ga edcB A^GAB | cBce B/c/BA^G A2E2 |
E2cB A^GAc e2e2 | cBA^G G2A2 A4 | ea^ga edcB A^GAB |
cBce B/c/BA^G A2E2 | E2cB A^GAB c2c2 | cde^f g2a2 e4 |
ea^ga edcB A^GAB | cBce B/c/BA^G A2E2 | E2cB A^GAc e2e2 |
cBA^G {G}A4 A2B2 |: c4 c3c e2c2 | =G4 G/A/G=F2 {FE}F2E2 | e4 c3e g2g2 |
EGce g^fed f2e2 | ea^ga edcB A^GAB | cBce B/c/BA^G A2E2 |
E2cB A^GAc e2e2 |1 cBA^G G2A2 A2B2 :|2 cBA^G G2A2 A4 ||
<end>
<start>
